images/icons/antenna 1.svg

<svg width="70" height="70" viewBox="0 0 70 70" fill="none" xmlns="http://www.w3.org/2000/svg">
<path d="M67.3162 48.3385L48.8467 29.7337L50.8966 19.6373C51.4255 19.8438 51.9878 19.9517 52.5556 19.9558H52.5696C55.1776 19.9866 57.3169 17.8974 57.3478 15.2893C57.3787 12.6812 55.2894 10.542 52.6813 10.5111C50.0732 10.4803 47.934 12.5695 47.903 15.1776C47.8965 15.7357 47.9888 16.2905 48.1759 16.8163L37.3259 18.1405L19.6276 0.35C19.4104 0.128479 19.1141 0.00247917 18.8039 0C18.4976 0.00160417 18.2044 0.123521 17.9872 0.3395L14.6786 3.6295C14.2231 4.08508 14.2231 4.82358 14.6786 5.27917L16.4589 7.08517C9.56156 19.7681 11.8018 35.4741 21.9702 45.7228C22.0636 45.8121 22.1718 45.8843 22.2899 45.9363C22.2164 46.3311 22.178 46.7317 22.1756 47.1333V60.6667H8.17556C4.95556 60.6705 2.34602 63.28 2.34222 66.5V68.8333C2.34222 69.4776 2.8646 70 3.50889 70H57.1756C57.8199 70 58.3422 69.4776 58.3422 68.8333V66.5C58.3384 63.28 55.7289 60.6705 52.5089 60.6667H38.5089V54.6688C40.7021 55.1288 42.9367 55.3633 45.1776 55.3688C50.5547 55.363 55.8463 54.0225 60.5776 51.4675L62.3672 53.2677C62.5844 53.4892 62.8807 53.6152 63.1909 53.6177C63.4971 53.6161 63.7904 53.4941 64.0076 53.2782L67.3162 49.9882C67.7717 49.5326 67.7717 48.7941 67.3162 48.3385ZM50.9246 13.6348C51.8382 12.726 53.3156 12.7301 54.2243 13.6437C55.1332 14.5574 55.1291 16.0348 54.2154 16.9435C53.7781 17.3785 53.1863 17.6226 52.5694 17.6225H52.5624C51.2738 17.6158 50.2345 16.5658 50.2412 15.2771C50.2444 14.6602 50.4917 14.0699 50.9291 13.6348H50.9246ZM48.1782 21.301L46.8692 27.7445L44.2979 25.158L48.1782 21.301ZM46.8529 19.3282L42.6529 23.5037L39.4037 20.237L46.8529 19.3282ZM52.5089 63C54.4419 63 56.0089 64.567 56.0089 66.5V67.6667H4.67556V66.5C4.67556 64.567 6.24254 63 8.17556 63H52.5089ZM36.1756 58.3333V60.6667H24.5089V58.3333H36.1756ZM24.5089 56V47.1333C24.5089 44.303 27.1257 42 30.3422 42C33.5587 42 36.1756 44.303 36.1756 47.1333V56H24.5089ZM38.5089 52.29V47.1333C38.5089 43.0162 34.8456 39.6667 30.3422 39.6667C27.4305 39.622 24.7078 41.1041 23.1649 43.5738C14.2886 34.2249 12.2898 20.2875 18.1805 8.82073L58.8719 49.7455C52.5885 52.9419 45.3857 53.8418 38.5089 52.29ZM63.2037 50.7943L61.5599 49.1412L18.7922 6.11567L17.1414 4.46133L18.7922 2.81633L36.1499 20.272C36.1581 20.272 36.1627 20.2872 36.1709 20.293L64.8592 49.1493L63.2037 50.7943Z" fill="#212121"/>
<path d="M30.3527 44.3333H30.3422C28.4092 44.3304 26.8399 45.895 26.837 47.8281C26.8341 49.7611 28.3987 51.3304 30.3317 51.3333H30.3422C32.2752 51.3362 33.8446 49.7716 33.8475 47.8386C33.8504 45.9055 32.2857 44.3362 30.3527 44.3333ZM31.1694 48.6605C30.9498 48.8789 30.6521 49.0012 30.3422 49C29.6979 48.9966 29.1783 48.4716 29.1817 47.8273C29.1833 47.5189 29.307 47.2237 29.5256 47.0062C29.7427 46.7902 30.036 46.6683 30.3422 46.6667C30.9865 46.67 31.5061 47.195 31.5028 47.8393C31.5012 48.1477 31.3775 48.4429 31.1589 48.6605H31.1694Z" fill="#2196F3"/>
</svg>

<svg width="70" height="70" fill="none" xmlns="http://www.w3.org/2000/svg"><path d="M67.32 48.34l-18.47-18.6 2.05-10.1c.53.2 1.09.31 1.66.32h.01a4.72 4.72 0 10-4.4-3.14l-10.84 1.32L19.63.35A1.17 1.17 0 0018.8 0c-.3 0-.6.12-.81.34l-3.31 3.29c-.46.46-.46 1.2 0 1.65l1.78 1.8a32.69 32.69 0 005.51 38.64c.1.1.2.16.32.22-.07.4-.11.8-.11 1.2v13.53h-14a5.84 5.84 0 00-5.84 5.83v2.33c0 .65.52 1.17 1.17 1.17h53.67c.64 0 1.16-.52 1.16-1.17V66.5a5.84 5.84 0 00-5.83-5.83h-14v-6a32.48 32.48 0 0022.07-3.2l1.79 1.8c.21.22.51.35.82.35.3 0 .6-.13.82-.34l3.3-3.3c.46-.45.46-1.19 0-1.64zm-16.4-34.7a2.33 2.33 0 111.65 3.98 2.33 2.33 0 01-1.64-3.99zm-2.74 7.66l-1.31 6.44-2.57-2.58 3.88-3.86zm-1.33-1.97l-4.2 4.17-3.25-3.26 7.45-.91zM52.51 63a3.5 3.5 0 013.5 3.5v1.17H4.68V66.5a3.5 3.5 0 013.5-3.5H52.5zm-16.33-4.67v2.34H24.5v-2.34h11.67zM24.5 56v-8.87c0-2.83 2.62-5.13 5.83-5.13 3.22 0 5.84 2.3 5.84 5.13V56H24.5zm14-3.71v-5.16c0-4.11-3.66-7.46-8.17-7.46a8.31 8.31 0 00-7.18 3.9 30.34 30.34 0 01-4.98-34.75l40.7 40.93a30.23 30.23 0 01-20.37 2.54zm24.7-1.5l-1.65-1.65L18.79 6.12l-1.65-1.66 1.65-1.64 17.36 17.45.02.02 28.69 28.86-1.66 1.64z" fill="#212121"/><path d="M30.35 44.33a3.5 3.5 0 10-.02 7h.01a3.5 3.5 0 10.01-7zm.82 4.33a1.17 1.17 0 11-.83-2 1.17 1.17 0 01.82 2z" fill="#2196F3"/></svg>
